X:58
T: Sír az egyik szemem...
O: Magyarszovát, Maneszes Mihályné - Szabó Anna (35), 1963
Q: "Guisto"
M:10/8
L:1/4
K:Bb
f/f/ f d/ d/(d/d3/2) | e/e/ d/d c B3/2 | 
f/f/ fd/ c/(d/d3/2) | e/e/ d/d c B3/2 | 
F/G/ G/ G _A F3/2 | B/B/ c/ e c B3/2 | 
F/F/ B/ B c F3/2 | F/G/ G/ G  G G3/2 | 

